X: 172
T: They Deserted Their Leader
C: Teton Sioux band 1911-1914
N: Derived from sioux167.krn
O: South Dakota, U.S.A.
N: Teton Sioux Music by Frances Densmore, 1918
Z: transcribed to **kern format by Craig Sapp
L: 1/16
M: 2/4
Q: 1/4=58
K: F clef=bass
%%linebreak <none>
D3 _E [I:setbarnb 1]| 
D4_E3 D | 
D4A,3 D ||  
[M:3/4]A,8D3 A, ||  
[M:2/4]A,4G,3 A, ||  
[M:3/4]G,8A,3 G, ||  
[M:2/4]G,2< F,2 D,3 F, ||  
[M:3/4]F,4F,4G,3 F, ||  
[M:2/4]F,2< D,2 D,3 D, | 
D,8 | 
D,8 ||  
[M:3/4]D2< A,2 A,2> A,2 D3 B, ||  
[M:2/4]A,2 A, A,2< G,2 G, ||  
[M:3/4]G,2> G,2G,4A,3 G, ||  
[M:2/4]G,2< F,2 D,3 F, ||  
[M:3/4]F,4F,4G, F,3 ||  
[M:2/4]F,2< D,2 D,3 D, | 
D,8 | 
D,4z4 |]  



